cb/services.svg

<svg viewBox="0 0 23 23" xmlns="http://www.w3.org/2000/svg" fill-rule="evenodd" height="1em" width="1em">
  <path d="M20.5 9c-1.4 0-2.5 1.1-2.5 2.5s1.1 2.5 2.5 2.5 2.5-1.1 2.5-2.5S21.9 9 20.5 9Zm0 4c-.8 0-1.5-.7-1.5-1.5s.7-1.5 1.5-1.5 1.5.7 1.5 1.5c0 .9-.7 1.5-1.5 1.5ZM5 11.5C5 10.1 3.9 9 2.5 9S0 10.1 0 11.5 1.1 14 2.5 14 5 12.9 5 11.5ZM2.5 13c-.8 0-1.5-.6-1.5-1.5 0-.8.7-1.5 1.5-1.5s1.5.7 1.5 1.5c0 .9-.7 1.5-1.5 1.5Zm9.5 5v-4c1.1-.2 2-1.2 2-2.5 0-1.2-.9-2.2-2-2.5V5c1.1-.2 2-1.2 2-2.5C14 1.1 12.9 0 11.5 0S9 1.1 9 2.5c0 1.2.9 2.2 2 2.5v4c-1.1.2-2 1.2-2 2.5 0 1.2.9 2.2 2 2.5v4c-1.1.2-2 1.2-2 2.5 0 1.4 1.1 2.5 2.5 2.5s2.5-1.1 2.5-2.5c0-1.2-.8-2.2-2-2.5ZM10 2.5c0-.8.7-1.5 1.5-1.5s1.5.7 1.5 1.5S12.3 4 11.5 4 10 3.3 10 2.5Zm0 9c0-.8.7-1.5 1.5-1.5s1.5.7 1.5 1.5-.7 1.5-1.5 1.5-1.5-.7-1.5-1.5ZM11.5 22c-.8 0-1.5-.7-1.5-1.5s.7-1.5 1.5-1.5 1.5.7 1.5 1.5-.7 1.5-1.5 1.5Z" fill="#010101"/>
  <path d="M9 6.5C9 5.1 7.9 4 6.5 4S4 5.1 4 6.5c0 1.2.9 2.2 2 2.5v5.1c-1.1.2-2 1.2-2 2.5S5.1 19 6.5 19 9 17.9 9 16.5c0-1.2-.9-2.2-2-2.5V8.9c1.1-.2 2-1.2 2-2.4Zm-4 0C5 5.7 5.7 5 6.5 5S8 5.7 8 6.5 7.3 8 6.5 8 5 7.3 5 6.5Zm3 10c0 .9-.7 1.5-1.5 1.5S5 17.4 5 16.5 5.7 15 6.5 15s1.5.7 1.5 1.5Zm9-2.4V8.9c1.1-.2 2-1.2 2-2.5S17.9 4 16.5 4 14 5.1 14 6.5c0 1.2.9 2.2 2 2.5v5.1c-1.1.2-2 1.2-2 2.5 0 1.4 1.1 2.5 2.5 2.5S19 18 19 16.6c0-1.3-.8-2.3-2-2.5Zm-2-7.6c0-.8.7-1.5 1.5-1.5s1.5.7 1.5 1.5S17.3 8 16.5 8 15 7.3 15 6.5ZM16.5 18c-.8 0-1.5-.7-1.5-1.5s.7-1.5 1.5-1.5 1.5.7 1.5 1.5-.7 1.5-1.5 1.5Z" fill="#010101"/>
</svg>

<svg viewBox="0 0 23 23" version="1.1" xmlns="http://www.w3.org/2000/svg" fill-rule="evenodd" height="1em" width="1em">
  <path d="M20.5,9 C19.1,9 18,10.1 18,11.5 C18,12.9 19.1,14 20.5,14 C21.9,14 23,12.9 23,11.5 C23,10.1 21.9,9 20.5,9 L20.5,9 Z M20.5,13 C19.7,13 19,12.3 19,11.5 C19,10.7 19.7,10 20.5,10 C21.3,10 22,10.7 22,11.5 C22,12.4 21.3,13 20.5,13 L20.5,13 Z" fill="#010101"/>
  <path d="M5,11.5 C5,10.1 3.9,9 2.5,9 C1.1,9 0,10.1 0,11.5 C0,12.9 1.1,14 2.5,14 C3.9,14 5,12.9 5,11.5 L5,11.5 Z M2.5,13 C1.7,13 1,12.4 1,11.5 C1,10.7 1.7,10 2.5,10 C3.3,10 4,10.7 4,11.5 C4,12.4 3.3,13 2.5,13 L2.5,13 Z" fill="#010101"/>
  <path d="M12,18 L12,14 C13.1,13.8 14,12.8 14,11.5 C14,10.3 13.1,9.3 12,9 L12,5 C13.1,4.8 14,3.8 14,2.5 C14,1.1 12.9,0 11.5,0 C10.1,0 9,1.1 9,2.5 C9,3.7 9.9,4.7 11,5 L11,9 C9.9,9.2 9,10.2 9,11.5 C9,12.7 9.9,13.7 11,14 L11,18 C9.9,18.2 9,19.2 9,20.5 C9,21.9 10.1,23 11.5,23 C12.9,23 14,21.9 14,20.5 C14,19.3 13.2,18.3 12,18 L12,18 Z M10,2.5 C10,1.7 10.7,1 11.5,1 C12.3,1 13,1.7 13,2.5 C13,3.3 12.3,4 11.5,4 C10.7,4 10,3.3 10,2.5 L10,2.5 Z M10,11.5 C10,10.7 10.7,10 11.5,10 C12.3,10 13,10.7 13,11.5 C13,12.3 12.3,13 11.5,13 C10.7,13 10,12.3 10,11.5 L10,11.5 Z M11.5,22 C10.7,22 10,21.3 10,20.5 C10,19.7 10.7,19 11.5,19 C12.3,19 13,19.7 13,20.5 C13,21.3 12.3,22 11.5,22 L11.5,22 Z" fill="#010101"/>
  <path d="M9,6.5 C9,5.1 7.9,4 6.5,4 C5.1,4 4,5.1 4,6.5 C4,7.7 4.9,8.7 6,9 L6,14.1 C4.9,14.3 4,15.3 4,16.6 C4,17.9 5.1,19 6.5,19 C7.9,19 9,17.9 9,16.5 C9,15.3 8.1,14.3 7,14 L7,8.9 C8.1,8.7 9,7.7 9,6.5 L9,6.5 Z M5,6.5 C5,5.7 5.7,5 6.5,5 C7.3,5 8,5.7 8,6.5 C8,7.3 7.3,8 6.5,8 C5.7,8 5,7.3 5,6.5 L5,6.5 Z M8,16.5 C8,17.4 7.3,18 6.5,18 C5.7,18 5,17.4 5,16.5 C5,15.6 5.7,15 6.5,15 C7.3,15 8,15.7 8,16.5 L8,16.5 Z" fill="#010101"/>
  <path d="M17,14.1 L17,8.9 C18.1,8.7 19,7.7 19,6.4 C19,5.1 17.9,4 16.5,4 C15.1,4 14,5.1 14,6.5 C14,7.7 14.9,8.7 16,9 L16,14.1 C14.9,14.3 14,15.3 14,16.6 C14,18 15.1,19.1 16.5,19.1 C17.9,19.1 19,18 19,16.6 C19,15.3 18.2,14.3 17,14.1 L17,14.1 Z M15,6.5 C15,5.7 15.7,5 16.5,5 C17.3,5 18,5.7 18,6.5 C18,7.3 17.3,8 16.5,8 C15.7,8 15,7.3 15,6.5 L15,6.5 Z M16.5,18 C15.7,18 15,17.3 15,16.5 C15,15.7 15.7,15 16.5,15 C17.3,15 18,15.7 18,16.5 C18,17.3 17.3,18 16.5,18 L16.5,18 Z" fill="#010101"/>
</svg>
